X:3859
T:Ländler für Dudlsack bzw. Drehleier
O:england
R:Ländler
C:trad.
S:Sammlung der Gesellschaft der Musikfreunde 1819
A:NÖ, Maria Taferl
P:2
M:3/4
L:1/8
K:G
B2|d2cAc2|G2B2AD|d4Bd|edcAc2|G2BdAD|G4:|
G2|D2cAc2|D2BGB2|D2ADA2|d6|D2cAAc|D2BGGB|D2AcAF|G4:|


